X: 11782
T: Elizabeth Kelly's Delight
R: slip jig
M: 9/8
K: Eminor
e3 efe edB|e2e edB ABd|e3 efe edB|d2d d2B ABd:|
|:g2e fed edB|gfe fdB ABd|1 g2e fed edB|d2d d2B ABd:|2 gag fed edB|d2d d2A Bdf||

